public/assets/trusts-llama/ecb-1.svg

<svg fill="none" height="36" viewBox="0 0 43 36" width="43" xmlns="http://www.w3.org/2000/svg" xmlns:xlink="http://www.w3.org/1999/xlink"><clipPath id="a"><path d="m.224609 0h42.5496v35.29h-42.5496z"/></clipPath><g clip-path="url(#a)" fill="#fff"><path d="m.224609 13.3843h5.682331v.7272c0 8.6484 6.94406 15.5925 15.59246 15.5925s15.5925-6.9441 15.5925-15.5925v-.7272h5.6823v21.9057h-42.549591z"/><path d="m21.3724 0c-7.794 0-14.10726 6.31322-14.10726 14.1073 0 7.794 6.44026 14.1072 14.10726 14.1072s14.1072-6.3132 14.1072-14.1072c0-7.79408-6.3088-14.1073-14.1072-14.1073zm9.5947 7.98681.3154-.94633.3155.94633h1.0427l-.8193.66155.3154.94633-.8543-.63089-.8543.63089.3154-.94633-.8192-.66155zm-9.7831-5.68233.3154-.94633.3155.94633h1.0427l-.8543.63088.3154.94633-.8193-.50383-.8543.50383.3155-.94633-.8544-.63088h1.0734zm5.0164 10.00652-.5345 1.2618h-10.0065v1.2617h9.3756l-.5345 1.2618h-8.6483c.8543 2.6199 3.2508 4.5432 6.2168 4.5432 1.989 0 3.7897-.9463 4.9551-2.3044v1.8006c-1.3582 1.1698-3.0625 1.8006-4.9551 1.8006-3.5663 0-6.6287-2.5235-7.575-5.8093h-2.2081l.5345-1.2618h1.4852v-1.2618h-1.989l.6309-1.3888h1.6736c.8543-3.37785 3.8816-5.80938 7.5749-5.80938 2.1161 0 4.1052.85432 5.494 2.30448l-.5345 1.3581c-1.1698-1.3581-2.9354-2.30443-4.9551-2.30443-2.9353 0-5.3669 1.89265-6.2168 4.54323h10.2256zm-10.7294-8.42931.3154-1.04271.3155 1.04271h1.0734l-.8544.63088.3155.94632-.8543-.63088-.8193.63088.3154-.94632-.8543-.63088h1.0427zm-4.1051 4.10512.3154-.94633.3155.94633h.9463l-.7273.66155.3155.94633-.8544-.63089-.8192.63089.3154-.94633-.8543-.66155h1.0427zm-2.08106 7.29019.31544-.9463-.75793-.6309h.94632l.31543-.9463.3155.9463h1.0733l-.8543.6309.3155.9463-.8544-.6309-.81924.6309zm3.25076 5.6824-.8543-.6309-.8193.6309.3155-1.0428-.8543-.5345h1.0427l.3154-1.0427.3155 1.0427h.9463l-.7273.5345.3155 1.0428zm4.1008 4.1007-.8543-.6309-.8193.6309.3154-.9463-.8543-.6309h1.0427l.3155-.9463.3154.9463h1.0734l-.8543.6309.3154.9463zm5.6823 1.4852-.8193-.5345-.8543.5345.3155-.9463-.8544-.6309h1.0734l.3155-.9463.3154.9463h1.0427l-.8543.6309.3154.9463zm5.586-1.4852-.7273-.6309-.8543.6309.3154-.9463-.8193-.6309h.9464l.4118-.9463.3154.9463h.9464l-.8544.6309.3155.9463zm-.3155-20.54753.3155.94632-.7273-.63088-.8543.63088.3154-.94632-.8193-.63088h.9464l.4118-1.04271.3154 1.04271h.9464l-.8544.63088zm4.5476 16.44683-.8543-.6309-.8543.6309.3154-1.0428-.8192-.5345h1.0427l.3154-1.0427.3155 1.0427h1.0427l-.8193.5345zm.6309-6.3133-.8543.6309.3154-.9463-.8543-.6309h1.0734l.3154-.9463.3155.9463h1.0427l-.8543.6309.3461.9463-.8543-.6309z"/></g></svg>

<svg xmlns="http://www.w3.org/2000/svg" width="43" height="36" viewBox="0 0 43 36" fill="none">
  <g clip-path="url(#clip0_85_2906)">
    <path d="M0.224609 13.3843H5.90694V14.1115C5.90694 22.7599 12.851 29.704 21.4994 29.704C30.1478 29.704 37.0919 22.7599 37.0919 14.1115V13.3843H42.7742V35.29H0.224609V13.3843Z" fill="white"/>
    <path d="M21.3724 0C13.5784 0 7.26514 6.31322 7.26514 14.1073C7.26514 21.9013 13.7054 28.2145 21.3724 28.2145C29.0394 28.2145 35.4796 21.9013 35.4796 14.1073C35.4796 6.31322 29.1708 0 21.3724 0ZM30.9671 7.98681L31.2825 7.04048L31.598 7.98681H32.6407L31.8214 8.64836L32.1368 9.59469L31.2825 8.9638L30.4282 9.59469L30.7436 8.64836L29.9244 7.98681H30.9671ZM21.184 2.30448L21.4994 1.35815L21.8149 2.30448H22.8576L22.0033 2.93536L22.3187 3.88169L21.4994 3.37786L20.6451 3.88169L20.9606 2.93536L20.1062 2.30448H21.1796H21.184ZM26.2004 12.311L25.6659 13.5728H15.6594V14.8345H25.035L24.5005 16.0963H15.8522C16.7065 18.7162 19.103 20.6395 22.069 20.6395C24.058 20.6395 25.8587 19.6932 27.0241 18.3351V20.1357C25.6659 21.3055 23.9616 21.9363 22.069 21.9363C18.5027 21.9363 15.4403 19.4128 14.494 16.127H12.2859L12.8204 14.8652H14.3056V13.6034H12.3166L12.9475 12.2146H14.6211C15.4754 8.83675 18.5027 6.40522 22.196 6.40522C24.3121 6.40522 26.3012 7.25954 27.69 8.7097L27.1555 10.0678C25.9857 8.7097 24.2201 7.76337 22.2004 7.76337C19.2651 7.76337 16.8335 9.65602 15.9836 12.3066H26.2092L26.2004 12.311ZM15.471 3.88169L15.7864 2.83898L16.1019 3.88169H17.1753L16.3209 4.51257L16.6364 5.45889L15.7821 4.82801L14.9628 5.45889L15.2782 4.51257L14.4239 3.88169H15.4666H15.471ZM11.3659 7.98681L11.6813 7.04048L11.9968 7.98681H12.9431L12.2158 8.64836L12.5313 9.59469L11.6769 8.9638L10.8577 9.59469L11.1731 8.64836L10.3188 7.98681H11.3615H11.3659ZM9.28484 15.277L9.60028 14.3307L8.84235 13.6998H9.78867L10.1041 12.7535L10.4196 13.6998H11.4929L10.6386 14.3307L10.9541 15.277L10.0997 14.6461L9.28046 15.277H9.28484ZM12.5356 20.9594L11.6813 20.3285L10.862 20.9594L11.1775 19.9166L10.3232 19.3821H11.3659L11.6813 18.3394L11.9968 19.3821H12.9431L12.2158 19.9166L12.5313 20.9594H12.5356ZM16.6364 25.0601L15.7821 24.4292L14.9628 25.0601L15.2782 24.1138L14.4239 23.4829H15.4666L15.7821 22.5366L16.0975 23.4829H17.1709L16.3166 24.1138L16.632 25.0601H16.6364ZM22.3187 26.5453L21.4994 26.0108L20.6451 26.5453L20.9606 25.599L20.1062 24.9681H21.1796L21.4951 24.0218L21.8105 24.9681H22.8532L21.9989 25.599L22.3143 26.5453H22.3187ZM27.9047 25.0601L27.1774 24.4292L26.3231 25.0601L26.6385 24.1138L25.8192 23.4829H26.7656L27.1774 22.5366L27.4928 23.4829H28.4392L27.5848 24.1138L27.9003 25.0601H27.9047ZM27.5892 4.51257L27.9047 5.45889L27.1774 4.82801L26.3231 5.45889L26.6385 4.51257L25.8192 3.88169H26.7656L27.1774 2.83898L27.4928 3.88169H28.4392L27.5848 4.51257H27.5892ZM32.1368 20.9594L31.2825 20.3285L30.4282 20.9594L30.7436 19.9166L29.9244 19.3821H30.9671L31.2825 18.3394L31.598 19.3821H32.6407L31.8214 19.9166L32.1368 20.9594ZM32.7677 14.6461L31.9134 15.277L32.2288 14.3307L31.3745 13.6998H32.4479L32.7633 12.7535L33.0788 13.6998H34.1215L33.2672 14.3307L33.6133 15.277L32.759 14.6461H32.7677Z" fill="white"/>
  </g>
  <defs>
    <clipPath id="clip0_85_2906">
      <rect width="42.5496" height="35.29" fill="white" transform="translate(0.224609)"/>
    </clipPath>
  </defs>
</svg>
